X: 21240
T: Keel Row, The
R: strathspey
M: 4/4
K: Gmajor
|:G>A|B2 G>B c2 A>c|B2 G>B A>FD>c|
B2 G>B c2 A>c|1 B>GA<F G2:|2 B>GA<F G2 c2||
|:B<dd>g e2 d>c|B2 G>B A>FD>c|
B<dd>g e2 d>c|1 B>GA<F G2 c2:|2 B>GA<F G2||

